Reedweeks/img/ct_3.svg

<svg width="24" height="24" viewBox="0 0 24 24" fill="none" xmlns="http://www.w3.org/2000/svg">
<path d="M15.6602 6.18825C15.9952 6.18825 16.2669 5.91662 16.2669 5.58155C16.2669 5.24648 15.9952 4.97485 15.6602 4.97485C15.3251 4.97485 15.0535 5.24648 15.0535 5.58155C15.0535 5.91662 15.3251 6.18825 15.6602 6.18825Z" fill="#3B3943"/>
<path d="M8.33997 6.18825C8.67504 6.18825 8.94667 5.91662 8.94667 5.58155C8.94667 5.24648 8.67504 4.97485 8.33997 4.97485C8.0049 4.97485 7.73328 5.24648 7.73328 5.58155C7.73328 5.91662 8.0049 6.18825 8.33997 6.18825Z" fill="#3B3943"/>
<path d="M21.5936 17.2104C21.9761 16.8433 22.1936 16.3535 22.2409 15.7476C22.3708 14.0802 21.5215 12.6283 19.7849 11.5491C18.8235 10.9517 17.8519 10.629 17.4159 10.5026C18.1659 9.56416 18.6067 8.42294 18.6067 7.19315C18.6067 6.49331 18.4648 5.75177 18.2021 5.01961C19.2008 4.77321 19.944 3.87014 19.944 2.79689C19.944 1.53441 18.9169 0.507336 17.6544 0.507336C16.8972 0.507336 16.1945 0.888539 15.7728 1.49409C14.6347 0.523161 13.3286 0 12.0001 0C10.6715 0 9.36537 0.523161 8.22726 1.4942C7.80554 0.888591 7.10275 0.507336 6.34553 0.507336C5.08305 0.507336 4.05598 1.53441 4.05598 2.79689C4.05598 3.87024 4.79919 4.77331 5.79803 5.01966C5.53534 5.75182 5.39348 6.49331 5.39348 7.19315C5.39348 8.42527 5.83591 9.56846 6.58851 10.5079C6.14385 10.638 5.18558 10.9601 4.23778 11.5491C2.50118 12.6283 1.65186 14.0801 1.78178 15.7477C1.82853 16.3473 2.04178 16.8335 2.41712 17.1994C1.81655 17.8035 1.54301 18.6651 1.77504 19.4944L2.5582 22.2933C2.84829 23.33 3.83977 23.9999 4.94094 23.9999C5.18625 23.9999 5.43701 23.9667 5.68669 23.8969C5.68721 23.8967 5.68767 23.8965 5.68819 23.8964V23.8964L9.81174 22.7246C10.5182 22.9076 11.2537 23.0014 12.0001 23.0014C12.7474 23.0014 13.4838 22.9066 14.1882 22.7244L18.3121 23.8965V23.8964C18.3126 23.8966 18.3131 23.8967 18.3136 23.8969C18.5633 23.9668 18.814 24 19.0593 24C20.1604 24 21.152 23.33 21.4421 22.2933L22.2252 19.4945C22.4558 18.6701 22.1866 17.814 21.5936 17.2104ZM21.465 15.6872C21.4293 16.1445 21.2623 16.4883 20.9574 16.7326C20.7794 16.6362 20.5875 16.5573 20.3832 16.5001C20.1586 16.4373 19.9308 16.4038 19.7047 16.3978C19.7057 16.3524 19.7064 16.3068 19.7064 16.261C19.7064 14.7436 19.1291 13.0537 18.1476 11.5882C19.5284 12.1625 21.6416 13.4188 21.465 15.6872ZM17.6544 1.28562C18.4877 1.28562 19.1657 1.96355 19.1657 2.79689C19.1657 3.54689 18.6159 4.17108 17.898 4.28818C17.5864 3.63115 17.1797 2.99618 16.6934 2.42202C16.5806 2.28888 16.4651 2.16124 16.3475 2.03837C16.6147 1.58033 17.1133 1.28562 17.6544 1.28562ZM4.83421 2.79689C4.83421 1.96355 5.51214 1.28562 6.34548 1.28562C6.88654 1.28562 7.38526 1.58038 7.65232 2.03853C7.5348 2.16134 7.41935 2.28893 7.30666 2.42202C6.82039 2.99618 6.41365 3.63115 6.10198 4.28818C5.38409 4.17118 4.83421 3.547 4.83421 2.79689ZM7.90059 2.92504C9.07305 1.54069 10.529 0.778282 12.0001 0.778282C13.4712 0.778282 14.9271 1.54069 16.0995 2.92504C17.1821 4.20324 17.8284 5.79877 17.8284 7.19315C17.8284 9.84174 15.4222 12.0163 12.3892 12.1889V7.63666C13.1695 7.54151 13.703 7.16041 13.703 6.6608C13.703 6.08186 12.9868 5.66164 12.0001 5.66164C11.0133 5.66164 10.297 6.08186 10.297 6.6608C10.297 7.16041 10.8306 7.54151 11.6109 7.63666V12.1889C8.57796 12.0163 6.17171 9.84174 6.17171 7.19315C6.17171 5.79877 6.818 4.20324 7.90059 2.92504ZM12.0001 6.88168C11.5178 6.88168 11.2059 6.74646 11.1017 6.6608C11.2059 6.57514 11.5178 6.43992 12.0001 6.43992C12.4823 6.43992 12.7942 6.57514 12.8985 6.6608C12.7942 6.74646 12.4823 6.88168 12.0001 6.88168ZM4.63289 12.2199C5.04876 11.96 5.47198 11.7555 5.84468 11.5995C4.86773 13.0625 4.29346 14.7475 4.29346 16.261C4.29346 16.3067 4.29413 16.3523 4.29517 16.3978C4.06916 16.4038 3.84138 16.4373 3.61687 16.5001C3.41773 16.5558 3.23053 16.6324 3.0563 16.7254C2.75697 16.4816 2.59291 16.1401 2.55758 15.6873C2.45064 14.314 3.14886 13.1474 4.63289 12.2199ZM5.47686 23.1474C4.51989 23.4151 3.54662 22.938 3.30758 22.0836L2.52442 19.2847C2.28539 18.4304 2.86951 17.5174 3.82659 17.2496C4.29667 17.118 4.78331 17.1602 5.19673 17.3684C5.59807 17.5705 5.88188 17.9061 5.99582 18.3133L6.77898 21.1122C6.89297 21.5195 6.82454 21.9536 6.58633 22.3347C6.34102 22.7272 5.94694 23.0158 5.47686 23.1474ZM7.59249 21.7921C7.8912 21.9749 8.20324 22.1375 8.52706 22.2805L7.31818 22.624C7.46382 22.3591 7.5556 22.078 7.59249 21.7921ZM9.9221 21.9497C9.91847 21.9487 9.91479 21.9478 9.9111 21.9469C9.02085 21.7051 8.20936 21.3158 7.49702 20.7899L6.74536 18.1037C6.5717 17.483 6.14603 16.975 5.54675 16.6733C5.39602 16.5974 5.23871 16.5372 5.07719 16.4924C5.07376 16.4159 5.07179 16.3387 5.07179 16.261C5.07179 14.578 5.86865 12.6472 7.17077 11.1367C8.37752 12.2692 10.0959 12.9786 12.0001 12.9786C13.9042 12.9786 15.6225 12.2693 16.8293 11.1368C18.1313 12.6473 18.9281 14.578 18.9281 16.261C18.9281 16.3391 18.9262 16.4163 18.9227 16.4924C18.7613 16.5373 18.604 16.5974 18.4534 16.6733C17.8541 16.975 17.4284 17.483 17.2548 18.1037L16.5031 20.7903C15.2499 21.715 13.6564 22.2231 12 22.2231C11.2896 22.2231 10.5905 22.1311 9.9221 21.9497ZM16.4075 21.7912C16.4443 22.0774 16.5361 22.3588 16.6819 22.6241L15.4709 22.2799C15.795 22.137 16.1081 21.9739 16.4075 21.7912ZM21.4757 19.2847L20.6925 22.0836C20.4534 22.938 19.4802 23.4152 18.5232 23.1474C18.0531 23.0158 17.6591 22.7272 17.4137 22.3347C17.1755 21.9536 17.1071 21.5195 17.2211 21.1122L18.0043 18.3133C18.1182 17.906 18.402 17.5705 18.8033 17.3684C19.2168 17.1602 19.7034 17.118 20.1735 17.2496C21.1306 17.5174 21.7147 18.4304 21.4757 19.2847Z" fill="#3B3943"/>
</svg>

<svg width="24" height="24" fill="none" xmlns="http://www.w3.org/2000/svg"><path d="M15.66 6.188a.607.607 0 1 0 0-1.213.607.607 0 0 0 0 1.213ZM8.34 6.188a.607.607 0 1 0 0-1.213.607.607 0 0 0 0 1.213Z" fill="#3B3943"/><path d="M21.594 17.21c.382-.367.6-.857.647-1.462.13-1.668-.72-3.12-2.456-4.199a9.889 9.889 0 0 0-2.37-1.046c.75-.939 1.192-2.08 1.192-3.31 0-.7-.142-1.441-.405-2.173a2.294 2.294 0 0 0 1.742-2.223 2.292 2.292 0 0 0-2.29-2.29c-.757 0-1.46.382-1.881.987C14.635.524 13.329 0 12 0c-1.329 0-2.635.523-3.773 1.494A2.304 2.304 0 0 0 6.346.507a2.292 2.292 0 0 0-2.29 2.29c0 1.073.743 1.976 1.742 2.223-.263.732-.405 1.473-.405 2.173 0 1.232.443 2.375 1.196 3.315a9.89 9.89 0 0 0-2.351 1.041C2.5 12.63 1.652 14.08 1.782 15.748c.047.6.26 1.086.635 1.451-.6.604-.874 1.466-.642 2.295l.783 2.8C2.848 23.33 3.84 24 4.941 24c.245 0 .496-.033.746-.103h.001l4.124-1.172a8.745 8.745 0 0 0 4.376 0l4.124 1.171h.002c.25.07.5.104.745.104 1.101 0 2.093-.67 2.383-1.707l.783-2.799c.23-.824-.038-1.68-.631-2.284Zm-.129-1.523c-.036.458-.203.801-.508 1.046a2.777 2.777 0 0 0-1.252-.335l.001-.137c0-1.517-.577-3.207-1.558-4.673 1.38.575 3.494 1.83 3.317 4.1Zm-3.81-14.401c.833 0 1.51.678 1.51 1.51 0 .75-.55 1.375-1.267 1.492a8.613 8.613 0 0 0-1.55-2.25 1.52 1.52 0 0 1 1.306-.752Zm-12.82 1.51c0-.832.677-1.51 1.51-1.51.542 0 1.04.294 1.307.753a8.617 8.617 0 0 0-1.55 2.25 1.514 1.514 0 0 1-1.268-1.492Zm3.066.129C9.073 1.541 10.529.778 12 .778c1.47 0 2.926.763 4.098 2.147 1.083 1.278 1.73 2.874 1.73 4.268 0 2.649-2.407 4.823-5.44 4.996V7.637c.78-.095 1.314-.477 1.314-.976 0-.58-.716-1-1.703-1-.987 0-1.703.42-1.703 1 0 .5.534.88 1.314.976v4.552c-3.033-.173-5.44-2.347-5.44-4.996 0-1.394.647-2.99 1.73-4.268ZM12 6.882c-.483 0-.795-.136-.9-.221.105-.086.417-.221.9-.221.481 0 .793.135.898.22-.105.086-.417.222-.899.222ZM4.632 12.22a8.48 8.48 0 0 1 1.212-.62c-.977 1.463-1.552 3.148-1.552 4.661l.002.137a2.792 2.792 0 0 0-1.239.327c-.299-.243-.463-.585-.498-1.038-.107-1.373.59-2.54 2.075-3.467Zm.844 10.927c-.957.268-1.93-.209-2.17-1.063l-.783-2.8c-.239-.854.346-1.767 1.303-2.034a1.9 1.9 0 0 1 1.37.118c.401.203.685.538.799.945l.783 2.8c.114.407.046.84-.193 1.222a1.9 1.9 0 0 1-1.11.812Zm2.115-1.355c.3.183.611.345.935.488l-1.209.344c.146-.265.238-.546.274-.832Zm2.33.158a7.233 7.233 0 0 1-2.425-1.16l-.752-2.686a2.285 2.285 0 0 0-1.198-1.43 2.572 2.572 0 0 0-.47-.182 5.166 5.166 0 0 1-.005-.231c0-1.683.797-3.614 2.099-5.124 1.207 1.132 2.925 1.842 4.83 1.842 1.903 0 3.622-.71 4.828-1.842 1.302 1.51 2.1 3.441 2.1 5.124 0 .078-.003.155-.006.231a2.576 2.576 0 0 0-.47.181c-.599.302-1.025.81-1.198 1.43l-.752 2.687c-1.253.925-2.847 1.433-4.503 1.433-.71 0-1.41-.092-2.078-.273Zm6.485-.159c.037.286.13.568.275.833l-1.211-.344c.324-.143.637-.306.936-.489Zm5.069-2.506-.784 2.799c-.239.854-1.212 1.331-2.169 1.063a1.9 1.9 0 0 1-1.11-.812 1.516 1.516 0 0 1-.192-1.223l.783-2.799c.114-.407.398-.742.8-.945a1.9 1.9 0 0 1 1.37-.118c.957.267 1.54 1.18 1.302 2.035Z" fill="#3B3943"/></svg>
